X:4
T:Ar Baradoz
M:6/8
L:1/8
W:Jezuz, pegen bras vez
W:Plijadur an ene
W:Pa vev e gras Doue
W:Hag en e garantez,
W:Pa vev e gras Doue
W:Hag en e garantez.
K:Gm
G|B2A (GA)B|A3 c3|B2A (GA)B|A3- A2A|G2G (GA)G|
F3 G3|(BA)G (FG)A|G3- G2G|G2G (GA)G|F3 G3|(BA)G (FG)A|G3 G2z||
